icons/svg/select.svg

﻿<?xml version="1.0" encoding="utf-8"?>
<!DOCTYPE svg PUBLIC "-//W3C//DTD SVG 1.1//EN" "http://www.w3.org/Graphics/SVG/1.1/DTD/svg11.dtd">
<svg xmlns="http://www.w3.org/2000/svg" xmlns:xlink="http://www.w3.org/1999/xlink" version="1.1" baseProfile="full" width="24" height="24" viewBox="0 0 24.00 24.00" enable-background="new 0 0 24.00 24.00" xml:space="preserve">
	<path fill="#000000" fill-opacity="1" stroke-width="0.2" stroke-linejoin="round" d="M 4,3L 5,3L 5,5L 3,5L 3,4C 3,3.44772 3.44771,3 4,3 Z M 20,3.00001C 20.5523,3.00001 21,3.44773 21,4.00001L 21,5.00001L 19,5.00001L 19,3.00001L 20,3.00001 Z M 15,5.00001L 15,3.00001L 17,3.00001L 17,5.00001L 15,5.00001 Z M 11,5.00001L 11,3.00001L 13,3.00001L 13,5.00001L 11,5.00001 Z M 7,5.00001L 7,3.00001L 9,3.00001L 9,5.00001L 7,5.00001 Z M 21,20C 21,20.5523 20.5523,21 20,21L 19,21L 19,19L 21,19L 21,20 Z M 15,21L 15,19L 17,19L 17,21L 15,21 Z M 11,21L 11,19L 13,19L 13,21L 11,21 Z M 7,21L 7,19L 9,19L 9,21L 7,21 Z M 4,21C 3.44771,21 3,20.5523 3,20L 3,19L 5,19L 5,21L 4,21 Z M 3,15L 5,15L 5,17L 3,17L 3,15 Z M 21,15L 21,17L 19,17L 19,15L 21,15 Z M 3,11L 5,11L 5,13L 3,13L 3,11 Z M 21,11L 21,13L 19,13L 19,11L 21,11 Z M 3,7.00001L 5,7.00001L 5,9.00001L 3,9.00001L 3,7.00001 Z M 21,7.00001L 21,9.00001L 19,9.00001L 19,7.00001L 21,7.00001 Z "/>
</svg>

<svg xmlns="http://www.w3.org/2000/svg" version="1.1" baseProfile="full" width="24" height="24" viewBox="0 0 24.00 24.00" xml:space="preserve"><path fill="#000" fill-opacity="1" stroke-width=".2" stroke-linejoin="round" d="M4 3h1v2H3V4c0-.552.448-1 1-1zm16 0c.552 0 1 .448 1 1v1h-2V3h1zm-5 2V3h2v2h-2zm-4 0V3h2v2h-2zM7 5V3h2v2H7zm14 15c0 .552-.448 1-1 1h-1v-2h2v1zm-6 1v-2h2v2h-2zm-4 0v-2h2v2h-2zm-4 0v-2h2v2H7zm-3 0c-.552 0-1-.448-1-1v-1h2v2H4zm-1-6h2v2H3v-2zm18 0v2h-2v-2h2zM3 11h2v2H3v-2zm18 0v2h-2v-2h2zM3 7h2v2H3V7zm18 0v2h-2V7h2z"/></svg>
